X: 60
T:Gander in the Pratie Hole
R:jig
M:6/8
L:1/8
K:D
E|FAD FAD | GFG EFG | FAD FAD | GED D2 E| FAD FAD | GFG EFG| fed ecA | G
ED
 D2 :|
d | Add ded | =cAB =cAG| Add ded | =cAB c2 BA| Add ded| =cAB =cde|fed ec
A| GED D2 :|
